X: 2079
T: At The Bend In The Road
R: slide
M: 12/8
K: Dmajor
|:AFA d2B AFA d2d|efe B2c B2A F2B|
AFA d2B AFA d2d|1 efe B2c d3 dcB:|2 efe B2c d3 d2^g||
a3 afa b3 a2f|efe B2c B2A F2^g|
a3 afa b3 a2f|efe B2c d3 d2^g|
a3 afa b3 a2f|efe B2c B2A F2B|
AFA d2B AFA d2d|efe B2c d3 dcB||

